X: 1203
T: The Spinning Wheel
M:C|
L:1/8
R:Reel
B:O'Neill's 1203
N:Collected by Cronin
Z:Transcribed by Trish O'Nei
K:A
cAA(c B)GG(d | c)efga2(ga) | bBB(c dc)BA |1 cefg afed :|2 cefg afec |
|: (3.A.A.A (AF) FEEF | A2(Bc) dcBc | (3.A.A.A (AF) FEEe | (3fg(a ec) dcBc :|
| Aceg agfe | (fe)fg (af)ec | Aceg agfe | (3fga (3gab afec |
| Aceg agfe | (fe)fg (ag)af | (3bag (3agf (3gfe (3fed | (3fga (3gab afec |
|: (3fga (ec) dcBc | AEAB cAce | (3fga (ec) dcBc | (AF)FE (FA)A2 :|


